X:1
T:Title
%%score { 1 | ( 2 3 ) }
L:1/8
M:4/4
K:Db
V:1 treble nm="Grand Piano"
V:2 bass 
V:3 bass 
V:1
 z4 z2[Q:1/4=100] AA |[M:3/4] [Bd]2 d2 [Bf][Be] | [Ad]2 [Ac]2 [Ae][Ae] | [Ad][Bd] [Ac]2 [=GB]2 | %4
 [Bd]2 c2 [ce][df] | [eg]2 [eg]2 [df][ce] | d2 [Bd]2 [Ae][Bd] | [Ad][Ad] [Ad]2 [Ac]2 | %8
[M:2/4] [Ad]4 |] %9
V:2
 z4 z2 [D,F,][D,F,] |[M:3/4] [B,,F,]2 [F,,A,]2 [G,,A,][G,,G,] | [A,,F,]2 [A,,E,]2 [C,G,][C,G,] | %3
 [D,F,][B,,F,] E,2 E,2 | z2[K:treble] A2 A,A, | A,2 A,2[K:bass] [A,,A,][A,,G,] | %6
 [B,,F,]2 [B,,F,]2 [F,,F,][G,,D,] | [A,,F,][A,,F,] [A,,E,]2 [A,,E,]2 |[M:2/4] [D,F,]4 |] %9
V:3
 x8 |[M:3/4] x6 | x6 | x6 | [A,,E,]4[K:treble] z2 | x4[K:bass] x2 | x6 | x6 |[M:2/4] x4 |] %9

